assets/images/services1-icon2.svg

<svg width="93" height="57" viewBox="0 0 93 57" fill="none" xmlns="http://www.w3.org/2000/svg">
<path d="M84.2945 54.4867V43.1064L80.2603 41.0352V29.8569H71.9654V36.7768L66.6712 34.0587V28.8516V24.4645V0.703208H42.8904V11.5398L21.6575 0V35.3861H3.18493V42.9258H8.06849V54.4867H0V57H93V54.4867H84.2945ZM74.0887 32.3702H78.137V39.9452L74.0887 37.8669V32.3702ZM82.1712 44.7558V54.4867H78.774V45.9417H66.6712V36.7981L82.1712 44.7558ZM66.6712 48.4549H76.6507V54.4867H66.6712V48.4549ZM45.0137 3.21646H64.5479V23.3105L45.0137 12.6939V3.21646ZM60.7532 24.0136H23.7808V3.91954L60.7532 24.0136ZM23.7808 26.5268H64.5479V28.8516V54.4867H57.7534V35.3861H30.1507V54.4867H23.7808V42.9258V35.3861V26.5268ZM45.226 37.8993H55.6301V54.4867H45.226V37.8993ZM43.1027 54.4867H32.274V37.8993H43.1027V54.4867ZM21.6575 42.9258V54.4867H13.1644V42.9258H21.6575ZM5.30822 37.8993H21.6575V40.4126H5.30822V37.8993ZM10.1918 42.9258H11.0411V54.4867H10.1918V42.9258Z" fill="#9C8679"/>
</svg>

<svg width="93" height="57" fill="none" xmlns="http://www.w3.org/2000/svg"><path d="M84.294 54.487v-11.38l-4.034-2.072V29.857h-8.295v6.92l-5.294-2.718V.703h-23.78V11.54L21.657 0v35.386H3.184v7.54h4.883v11.56H0V57h93v-2.513h-8.706zM74.09 32.37h4.048v7.575l-4.048-2.078V32.37zm8.082 12.386v9.73h-3.397v-8.544H66.671v-9.144l15.5 7.958zm-15.5 3.699h9.98v6.032h-9.98v-6.032zM45.014 3.216h19.534v20.095L45.014 12.694V3.216zm15.74 20.798H23.78V3.92l36.972 20.094zM23.78 26.527h40.767v27.96h-6.795v-19.1H30.151v19.1h-6.37V26.526zm21.445 11.372H55.63v16.588H45.226V37.899zm-2.123 16.588H32.274V37.899h10.829v16.588zM21.657 42.926v11.56h-8.493v-11.56h8.493zM5.308 37.899h16.35v2.514H5.307v-2.514zm4.884 5.027h.85v11.56h-.85v-11.56z" fill="#9C8679"/></svg>
